assets/Tropical drink/Flat/tropical_drink_flat.svg

<svg width="32" height="32" viewBox="0 0 32 32" fill="none" xmlns="http://www.w3.org/2000/svg">
<path d="M11.48 10.96C13.9542 10.96 15.96 8.95424 15.96 6.48C15.96 4.00576 13.9542 2 11.48 2C9.00576 2 7 4.00576 7 6.48C7 8.95424 9.00576 10.96 11.48 10.96Z" fill="#00D26A"/>
<path d="M11.48 9.79997C13.3136 9.79997 14.8 8.31356 14.8 6.47997C14.8 4.64639 13.3136 3.15997 11.48 3.15997C9.64639 3.15997 8.15997 4.64639 8.15997 6.47997C8.15997 8.31356 9.64639 9.79997 11.48 9.79997Z" fill="#C3EF3C"/>
<path d="M21.19 6.69002C21.48 9.06002 22.18 11.36 23.24 13.52C23.76 14.58 24.05 15.78 24.05 17.05C24.05 21.2306 20.8602 24.6653 16.78 25.0427V28.61H20.38C20.8 28.61 21.14 28.94 21.14 29.36C21.14 29.77 20.81 30.11 20.39 30.11H11.68C11.27 30.11 10.93 29.78 10.93 29.36C10.93 28.95 11.26 28.61 11.68 28.61H15.28V25.0428C14.9958 25.0169 14.7089 24.9762 14.42 24.92C11.27 24.31 8.74998 21.77 8.14998 18.63C7.78998 16.74 8.09998 14.94 8.86998 13.42C9.93998 11.32 10.6 9.04002 10.87 6.70002C10.92 6.31002 11.23 6.02002 11.62 6.02002H20.44C20.83 6.02002 21.14 6.31002 21.19 6.69002Z" fill="#AEDDFF"/>
<path d="M19.5 2C19.0696 2 18.6874 2.27543 18.5513 2.68377L16.1093 10.01L16.0576 10.1944H18.1404L18.2174 10.01L20.2208 4H23.125V2H19.5Z" fill="#F8312F"/>
<path d="M23.75 3C23.75 3.55228 23.4702 4 23.125 4C22.7798 4 22.5 3.55228 22.5 3C22.5 2.44772 22.7798 2 23.125 2C23.4702 2 23.75 2.44772 23.75 3Z" fill="#990838"/>
<path d="M19.93 10.01H12.15C11.77 10.01 11.44 10.26 11.33 10.63C10.98 11.79 10.53 12.92 9.98998 13.99C9.57998 14.79 9.33998 15.65 9.27998 16.54C9.13998 18.43 9.77998 20.24 11.08 21.65C12.37 23.04 14.17 23.83 16.04 23.83C16.17 23.83 16.3 23.83 16.43 23.82C20 23.61 22.8 20.64 22.8 17.06C22.8 16.01 22.57 15.01 22.11 14.08C21.56 12.96 21.11 11.81 20.75 10.63C20.64 10.26 20.31 10.01 19.93 10.01Z" fill="#FF6723"/>
<path d="M15.02 13.2C15.4508 13.2 15.8 12.8508 15.8 12.42C15.8 11.9892 15.4508 11.64 15.02 11.64C14.5892 11.64 14.24 11.9892 14.24 12.42C14.24 12.8508 14.5892 13.2 15.02 13.2Z" fill="#FFB02E"/>
<path d="M18.28 15.92C18.7108 15.92 19.06 15.5708 19.06 15.14C19.06 14.7092 18.7108 14.36 18.28 14.36C17.8492 14.36 17.5 14.7092 17.5 15.14C17.5 15.5708 17.8492 15.92 18.28 15.92Z" fill="#FFB02E"/>
<path d="M15.8 18.16C15.8 18.5908 15.4508 18.94 15.02 18.94C14.5892 18.94 14.24 18.5908 14.24 18.16C14.24 17.7292 14.5892 17.38 15.02 17.38C15.4508 17.38 15.8 17.7292 15.8 18.16Z" fill="#FFB02E"/>
<path d="M20 8.5C20.2761 8.5 20.5 8.72386 20.5 9C20.5 9.74083 20.6561 10.2979 20.7147 10.4456L20.7223 10.4646L20.7282 10.4841C21.0806 11.6392 21.5208 12.764 22.0585 13.8589C22.5531 14.8592 22.8 15.9351 22.8 17.06C22.8 17.3361 22.5761 17.56 22.3 17.56C22.0239 17.56 21.8 17.3361 21.8 17.06C21.8 16.0852 21.587 15.1612 21.1618 14.3017L21.1612 14.3004C20.6018 13.1612 20.1438 11.9921 19.7772 10.7937C19.6686 10.5085 19.5 9.8381 19.5 9C19.5 8.72386 19.7239 8.5 20 8.5Z" fill="white"/>
</svg>

<svg xmlns="http://www.w3.org/2000/svg" width="32" height="32" fill="none"><path fill="#00D26A" d="M11.48 10.96a4.48 4.48 0 1 0 0-8.96 4.48 4.48 0 0 0 0 8.96Z"/><path fill="#C3EF3C" d="M11.48 9.8a3.32 3.32 0 1 0 0-6.64 3.32 3.32 0 0 0 0 6.64Z"/><path fill="#AEDDFF" d="M21.19 6.69c.29 2.37.99 4.67 2.05 6.83.52 1.06.81 2.26.81 3.53 0 4.18-3.19 7.615-7.27 7.993v3.567h3.6a.751.751 0 1 1 .01 1.5h-8.71a.749.749 0 1 1 0-1.5h3.6v-3.567a8.581 8.581 0 0 1-.86-.123c-3.15-.61-5.67-3.15-6.27-6.29-.36-1.89-.05-3.69.72-5.21 1.07-2.1 1.73-4.38 2-6.72.05-.39.36-.68.75-.68h8.82c.39 0 .7.29.75.67Z"/><path fill="#F8312F" d="M19.5 2a1 1 0 0 0-.949.684L16.11 10.01l-.051.184h2.082l.077-.184L20.221 4h2.904V2H19.5Z"/><path fill="#990838" d="M23.75 3c0 .552-.28 1-.625 1s-.625-.448-.625-1 .28-1 .625-1 .625.448.625 1Z"/><path fill="#FF6723" d="M19.93 10.01h-7.78c-.38 0-.71.25-.82.62-.35 1.16-.8 2.29-1.34 3.36-.41.8-.65 1.66-.71 2.55-.14 1.89.5 3.7 1.8 5.11a6.78 6.78 0 0 0 4.96 2.18c.13 0 .26 0 .39-.01a6.778 6.778 0 0 0 5.68-9.74 23.1 23.1 0 0 1-1.36-3.45.855.855 0 0 0-.82-.62Z"/><path fill="#FFB02E" d="M15.02 13.2a.78.78 0 1 0 0-1.56.78.78 0 0 0 0 1.56ZM18.28 15.92a.78.78 0 1 0 0-1.56.78.78 0 0 0 0 1.56ZM15.8 18.16a.78.78 0 1 1-1.56 0 .78.78 0 0 1 1.56 0Z"/><path fill="#fff" d="M20 8.5a.5.5 0 0 1 .5.5c0 .74.156 1.298.215 1.446l.007.019.006.02c.353 1.154.793 2.279 1.33 3.374.495 1 .742 2.076.742 3.201a.5.5 0 0 1-1 0c0-.975-.213-1.899-.638-2.758V14.3a23.599 23.599 0 0 1-1.385-3.506C19.67 10.508 19.5 9.838 19.5 9a.5.5 0 0 1 .5-.5Z"/></svg>
